parts/hackeriet_edited.svg

<?xml version="1.0" encoding="UTF-8" standalone="no"?>
<!-- Created with Inkscape (http://www.inkscape.org/) -->

<svg
   width="86.711372mm"
   height="69.691216mm"
   viewBox="0 0 86.711372 69.691216"
   version="1.1"
   id="svg1"
   xml:space="preserve"
   sodipodi:docname="hackeriet_edited.svg"
   inkscape:version="1.4.2 (ebf0e940d0, 2025-05-08)"
   xmlns:inkscape="http://www.inkscape.org/namespaces/inkscape"
   xmlns:sodipodi="http://sodipodi.sourceforge.net/DTD/sodipodi-0.dtd"
   xmlns="http://www.w3.org/2000/svg"
   xmlns:svg="http://www.w3.org/2000/svg"><sodipodi:namedview
     id="namedview1"
     pagecolor="#6b873d"
     bordercolor="#000000"
     borderopacity="0.25"
     inkscape:showpageshadow="2"
     inkscape:pageopacity="0.0"
     inkscape:pagecheckerboard="0"
     inkscape:deskcolor="#d1d1d1"
     inkscape:document-units="mm"
     inkscape:zoom="3.2402366"
     inkscape:cx="201.5285"
     inkscape:cy="112.49179"
     inkscape:window-width="2556"
     inkscape:window-height="1418"
     inkscape:window-x="0"
     inkscape:window-y="0"
     inkscape:window-maximized="1"
     inkscape:current-layer="svg1" /><defs
     id="defs1" /><g
     id="layer1"
     transform="matrix(0.78,0,0,0.78,-21.761477,-54.302431)"
     inkscape:export-filename="hackeriet_edited.svg"
     inkscape:export-xdpi="96"
     inkscape:export-ydpi="96"><g
       style="enable-background:new"
       id="g1"
       transform="matrix(0.26458333,0,0,0.26458333,91.28125,134.67292)"><g
         id="layer2"
         style="display:inline"
         transform="translate(36.417288,4.4305543)" /><g
         id="layer1-3"
         style="display:inline"
         transform="translate(2.000002,2.0000043)" /><g
         id="layer3"
         style="display:inline"
         transform="translate(36.417288,4.4305543)" /><g
         id="layer4"
         style="display:inline"
         transform="translate(4.657385,4.6383743)"><g
           id="g4515"
           transform="rotate(-67.014537,-49.418955,-74.780762)"><path
             d="m 51.956363,-190.6841 c -3.859172,-6.87395 -8.460587,-14.07499 -13.476274,-19.7716 l -23.898044,10.59176 c -5.1273344,-4.42343 -11.4277865,-7.94796 -17.1234178,-11.13977 0,0 -0.00183,-0.01 -0.00183,-0.01 0,0 -0.00848,0.004 -0.00848,0.004 0,0 -0.00183,-0.01 -0.00183,-0.01 0,0 -0.00848,0.004 -0.00848,0.004 l 0.1187597,-23.82738 c 0.00983,-8e-5 0.025363,1.3e-4 0.036329,-0.002 l 0.042015,-7.96514 c -65.1675009,0.53662 -127.7403409,42.21363 -152.9459009,102.41886 -26.86792,59.759425 -14.43363,134.2938192 30.21153,182.212216 32.156771,36.050581 80.350333,55.959192 128.2943902,55.519274 0.1339661,-0.0012 0.2681345,-0.0027 0.4020736,-0.0042 L 3.447494,89.344681 c -0.013491,2.85e-4 -0.028601,0.0031 -0.041919,0.0033 -0.00559,2.66e-4 -0.015226,0.0017 -0.020969,0.0017 L 3.6560193,65.421974 C -2.3274897,62.200589 -8.1090608,58.767667 -13.42479,54.127171 l -23.737786,10.409017 c -5.64206,-6.415433 -10.71205,-13.430968 -14.382886,-21.335289 l 18.64186,-18.125207 c -1.510736,-5.870219 -2.926671,-11.509999 -3.583236,-17.9849077 -8.033516,-3.1434382 -16.041354,-6.32380513 -24.086866,-9.427516 0.412654,-9.1310333 1.645348,-17.7691283 5.201521,-26.5758903 8.62013,0.182302 17.245566,0.25048 25.869506,0.394395 3.002674,-5.203838 6.203686,-10.284845 10.071725,-15.351894 l -10.411089,-23.743698 c 6.29739,-5.490828 13.440354,-10.521819 21.1578936,-14.307853 4.1780431,4.243785 8.43549259,8.486953 12.6495934,12.736451 0.02174,0.02182 0.042497,0.04465 0.064314,0.06661 l 1.8079232,1.853136 0.00366,-0.0089 -0.0027,-0.0062 0.00366,-0.0089 c 1.2293405,1.244863 2.4565706,2.492422 3.6732468,3.739688 8.274315,-3.770511 16.057414,-8.980104 22.382799,-15.316373 -3.566081,-7.854173 -7.083329,-15.784189 -10.612939,-23.65834 3.760226,-4.84183 7.162821,-10.20011 9.967721,-15.30788 l 26.027394,0.20502 c 2.723777,-8.66452 4.163424,-16.97924 4.621021,-25.35676 l -24.143344,-9.28823 c -0.705063,-6.82138 -2.256031,-13.44919 -4.269411,-19.87983 z m -57.7208694,21.86224 7.3796161,17.44642 -18.6453867,7.88677 7.6668093,18.12547 -17.9480313,7.59178 -7.666827,-18.12545 -18.645412,7.88678 -7.379614,-17.44644 18.645405,-7.88677 -7.664247,-18.11932 17.948041,-7.59179 7.664242,18.11932 z"
             style="display:inline;fill:#f9f9f9;stroke-width:3.40071;enable-background:new"
             id="path2" /></g></g></g></g></svg>

<?xml version="1.0" encoding="UTF-8" standalone="no"?>
<!-- Created with Inkscape (http://www.inkscape.org/) -->

<svg
   width="86.711372mm"
   height="69.691216mm"
   viewBox="0 0 86.711372 69.691216"
   version="1.1"
   id="svg1"
   xml:space="preserve"
   sodipodi:docname="hackeriet_edited.svg"
   inkscape:version="1.4.2 (ebf0e940d0, 2025-05-08)"
   xmlns:inkscape="http://www.inkscape.org/namespaces/inkscape"
   xmlns:sodipodi="http://sodipodi.sourceforge.net/DTD/sodipodi-0.dtd"
   xmlns="http://www.w3.org/2000/svg"
   xmlns:svg="http://www.w3.org/2000/svg"><sodipodi:namedview
     id="namedview1"
     pagecolor="#6b873d"
     bordercolor="#000000"
     borderopacity="0.25"
     inkscape:showpageshadow="2"
     inkscape:pageopacity="0.0"
     inkscape:pagecheckerboard="0"
     inkscape:deskcolor="#d1d1d1"
     inkscape:document-units="mm"
     inkscape:zoom="4.5823865"
     inkscape:cx="168.90762"
     inkscape:cy="157.45071"
     inkscape:window-width="2560"
     inkscape:window-height="1440"
     inkscape:window-x="0"
     inkscape:window-y="0"
     inkscape:window-maximized="1"
     inkscape:current-layer="svg1"
     showguides="false" /><defs
     id="defs1" /><g
     id="layer1"
     transform="matrix(0.78,0,0,0.78,-21.588063,-53.367283)"
     inkscape:export-filename="hackeriet_edited.svg"
     inkscape:export-xdpi="96"
     inkscape:export-ydpi="96"><g
       style="enable-background:new"
       id="g2"
       transform="matrix(0.26458333,0,0,0.26458333,91.28125,134.67292)"><g
         id="layer2"
         style="display:inline"
         transform="translate(36.417288,4.4305543)" /><g
         id="layer1-3"
         style="display:inline"
         transform="translate(2.000002,2.0000043)" /><g
         id="layer3"
         style="display:inline"
         transform="translate(36.417288,4.4305543)" /><g
         id="layer4"
         style="display:inline"
         transform="translate(4.657385,4.6383743)"><g
           id="g4515"
           transform="rotate(-67.014537,-49.418955,-74.780762)"><path
             id="path2"
             style="display:inline;fill:#f9f9f9;stroke-width:3.40071;enable-background:new"
             d="M 51.957003 -190.68442 C 48.097831 -197.55837 43.494316 -204.75937 38.478629 -210.45598 L 14.583547 -199.86332 C 9.4562118 -204.28675 3.1539273 -207.81065 -2.541704 -211.00246 L -2.5433101 -211.01266 L -2.5525309 -211.00875 L -2.5541369 -211.01895 L -2.5610525 -211.01601 L -2.4438135 -234.84364 C -2.4339835 -234.84372 -2.4176177 -234.84367 -2.4066517 -234.8458 L -2.3661737 -242.8107 C -67.533675 -242.27408 -130.10615 -200.59657 -155.31171 -140.39134 C -182.17963 -80.631921 -169.74442 -6.0985068 -125.09926 41.81989 C -92.942499 77.870471 -44.749426 97.781497 3.194631 97.341579 C 3.3285971 97.340379 3.4638128 97.338002 3.5977519 97.336502 L 3.4469744 89.343935 C 3.4334834 89.34422 3.4185202 89.347854 3.4052022 89.348054 C 3.3996122 89.34832 3.3895702 89.348961 3.3838272 89.348961 L 3.6553068 65.423271 C -2.3282022 62.201886 -8.1095696 58.766969 -13.425299 54.126473 L -37.161875 64.53494 C -42.803935 58.119507 -47.874686 51.104209 -51.545522 43.199888 L -32.903851 25.076378 C -34.414587 19.206159 -35.829016 13.565731 -36.485581 7.0908224 C -44.519097 3.9473842 -52.528973 0.76617935 -60.574485 -2.3375316 C -60.161831 -11.468565 -58.928258 -20.105626 -55.372085 -28.912388 C -46.751955 -28.730086 -38.127945 -28.662192 -29.504005 -28.518277 C -26.501331 -33.722115 -23.299864 -38.801998 -19.431825 -43.869047 L -29.840921 -67.613516 C -23.543531 -73.104344 -16.400908 -78.135838 -8.6833685 -81.921872 C -4.5053254 -77.678087 -0.24910613 -73.435158 3.9649947 -69.18566 C 3.9867347 -69.16384 4.0073686 -69.139649 4.0291856 -69.117689 L 5.8375696 -67.265439 L 5.8415518 -67.275288 L 5.8395962 -67.279899 L 5.8412731 -67.28877 C 7.0706136 -66.043907 8.29976 -64.796466 9.5164362 -63.5492 C 17.790751 -67.319711 25.571853 -72.529753 31.897238 -78.866022 C 28.331157 -86.720195 24.814895 -94.650297 21.285285 -102.52444 C 25.045511 -107.36627 28.447854 -112.72575 31.252754 -117.83352 L 57.280667 -117.62688 C 60.004444 -126.2914 61.443248 -134.60623 61.900845 -142.98375 L 37.757168 -152.27191 C 37.052105 -159.09329 35.501784 -165.72225 33.488404 -172.15289 L 51.957003 -190.68442 z M -5.7649426 -168.82223 L 1.6137365 -151.37559 L -17.029309 -143.48943 L -9.362176 -125.36274 L -27.311356 -117.7709 L -34.978489 -135.89758 L -53.623839 -128.01044 L -61.002518 -145.45709 L -42.357168 -153.34423 L -50.023673 -171.46302 L -32.074492 -179.05486 L -24.410293 -160.93509 L -5.7649426 -168.82223 z M -115.88054 -165.45103 A 7.6938966 7.7113833 67.014537 0 1 -119.97442 -155.35879 A 7.6938966 7.7113833 67.014537 0 1 -130.07826 -159.42871 A 7.6938966 7.7113833 67.014537 0 1 -125.98305 -169.52424 A 7.6938966 7.7113833 67.014537 0 1 -115.88054 -165.45103 z M -86.214803 45.731201 A 7.6938966 7.7113833 67.014537 0 1 -90.307703 55.825748 A 7.6938966 7.7113833 67.014537 0 1 -100.41252 51.753523 A 7.6938966 7.7113833 67.014537 0 1 -96.316336 41.660304 A 7.6938966 7.7113833 67.014537 0 1 -86.214803 45.731201 z " /></g></g></g></g></svg>
